images/client6.svg

<svg width="170" height="90" fill="none" xmlns="http://www.w3.org/2000/svg"><rect x=".5" y=".5" width="169" height="89" rx="3.5" stroke="#AFB1B8"/><path d="M85.7404 43.3533c-.418-.6101-.6179-1.3313-.5705-2.0571v-2.9827c0-.9143.1891-1.6091.5673-2.0844.3782-.4754 1.0277-.7121 1.9486-.71.8654 0 1.4796.2022 1.8429.6068.3962.5162.5889 1.1474.5448 1.7841v.7009h-1.548v-.71a3.9613 3.9613 0 00-.0448-.6948.6891.6891 0 00-.2212-.4127.836.836 0 00-.5608-.1608c-.2121-.015-.4225.0456-.5898.1699-.1348.1218-.2247.2813-.2564.4551a3.7847 3.7847 0 00-.0609.7374v3.6197a1.9988 1.9988 0 00.1988 1.0165.734.734 0 00.3089.2463.781.781 0 00.3994.0571c.1983.0155.395-.0434.548-.1638.1261-.1185.2073-.2732.2308-.44a4.3683 4.3683 0 00.048-.7252v-.7342h1.548v.6705c.0435.6637-.1446 1.3225-.5352 1.8752-.3558.4429-.9615.6644-1.8525.6644-.8909 0-1.564-.2366-1.9454-.7282zM92.1856 43.3837c-.391-.4643-.5865-1.1409-.5865-2.036v-3.1373c0-.886.1955-1.5566.5865-2.0117.391-.4551 1.0448-.6817 1.9614-.6796.9102 0 1.5608.2265 1.9518.6796.391.4551.5897 1.1257.5897 2.0117v3.1373c0 .886-.1987 1.5657-.5961 2.0329-.3974.4673-1.0448.7009-1.9454.7009-.9006 0-1.5672-.2366-1.9614-.6978zm2.6825-.7525c.14-.2908.2038-.6093.1859-.9285v-3.8412a1.8428 1.8428 0 00-.1827-.9103.7378.7378 0 00-.3162-.2501.7844.7844 0 00-.4081-.0533.7944.7944 0 00-.4093.0539.7493.7493 0 00-.3182.2495 1.8019 1.8019 0 00-.1859.9103v3.8594a1.858 1.858 0 00.1859.9285.9595.9595 0 00.3265.2301c.1249.0537.2606.0815.3978.0815s.2729-.0278.3978-.0815a.9595.9595 0 00.3265-.2301v-.0182zM98.5505 35.6106h1.6665l1.253 5.7886 1.282-5.7886h1.622l.163 8.3552h-1.198l-.128-5.8068-1.238 5.8068h-.961l-1.2821-5.828-.1185 5.828h-1.2115l.1506-8.3552zM106.406 35.6106h2.596c1.496 0 2.243.7908 2.243 2.3725 0 1.5149-.787 2.2713-2.362 2.2693h-.884v3.7134h-1.603l.01-8.3552zm2.218 3.5708c.158.0191.319.0053.471-.0403.152-.0455.292-.1218.41-.2236.184-.2822.265-.6136.231-.9435a2.8505 2.8505 0 00-.077-.7585.6347.6347 0 00-.118-.2292.6762.6762 0 00-.202-.1682 1.532 1.532 0 00-.715-.1335h-.622v2.4968h.622zM113.556 35.6106h1.721l1.766 8.3552h-1.494l-.349-1.9265h-1.535l-.359 1.9265h-1.516l1.766-8.3552zm1.471 5.4609l-.599-3.5071-.6 3.5071h1.199zM118.469 35.6106h1.122l2.147 4.7662v-4.7662h1.33v8.3552h-1.067l-2.16-4.9755v4.9755h-1.375l.003-8.3552zM126.184 40.7801l-1.786-5.1578h1.504l1.089 3.3131 1.023-3.3131h1.471l-1.763 5.1578v3.1857h-1.538v-3.1857zM88.2146 47.6189v.4369H86.907v3.3951h-.5481v-3.3951h-1.314v-.4369h3.1697zM92.3141 51.4512h-.4231a.1768.1768 0 01-.1186-.0364.1958.1958 0 01-.0705-.088l-.3781-.9102h-1.8141l-.3781.9102a.2578.2578 0 01-.0577.1032.1834.1834 0 01-.1186.0364h-.4231l1.6025-3.8319h.5577l1.6217 3.8167zm-2.6537-1.4229h1.5127l-.641-1.5595a2.9637 2.9637 0 01-.1186-.361c-.0224.0728-.0416.1426-.0609.2033l-.0576.1608-.6346 1.5564zM95.0766 51.0748c.1004.005.2009.005.3013 0a1.6469 1.6469 0 00.2564-.0455 1.82 1.82 0 00.2307-.0698c.0706-.0273.1411-.0607.2148-.094v-.8618h-.641a.1206.1206 0 01-.0865-.0303.0869.0869 0 01-.0321-.0698v-.2943h1.2435v1.4686a2.3546 2.3546 0 01-.3205.182 2.2193 2.2193 0 01-.3557.1305 2.6546 2.6546 0 01-.4006.0789 4.4587 4.4587 0 01-.468.0243 2.2523 2.2523 0 01-.8076-.1426 1.9365 1.9365 0 01-.641-.4006 1.849 1.849 0 01-.4134-.6068 2.0757 2.0757 0 01-.1474-.795 2.1551 2.1551 0 01.1442-.8011 1.759 1.759 0 01.4134-.6069 1.9111 1.9111 0 01.641-.3975 2.4746 2.4746 0 01.8589-.1426c.1492-.0002.2982.011.4455.0334.1303.0201.2581.0526.3814.0971a1.764 1.764 0 01.3205.1517c.0982.0599.1914.1268.2788.2003l-.1538.2367a.14.14 0 01-.052.0525.15.15 0 01-.073.0203.1963.1963 0 01-.0994-.0304 1.923 1.923 0 01-.157-.091 1.3721 1.3721 0 00-.2147-.1032 1.8732 1.8732 0 00-.2949-.0849 2.2546 2.2546 0 00-.407-.0334 1.7433 1.7433 0 00-.6186.1062 1.337 1.337 0 00-.4711.3034c-.1328.1378-.2343.3-.2981.4764a1.9544 1.9544 0 000 1.2775c.0702.1802.1794.3445.3205.4824.1315.1315.291.2349.468.3035a1.653 1.653 0 00.6345.0758zM100.185 51.014h1.75v.4369h-2.2851v-3.832h.5481l-.013 3.3951zM103.756 51.4509h-.548v-3.832h.548v3.832zM105.794 47.6371a.2694.2694 0 01.083.0698l2.343 2.8886a1.0362 1.0362 0 010-.1365v-2.8552h.478v3.8474h-.276a.2415.2415 0 01-.119-.0212.3176.3176 0 01-.086-.0729l-2.34-2.8855v2.9796h-.458v-3.8323h.285a.2334.2334 0 01.09.0182zM112.732 47.6189v.4217h-1.942v1.2653h1.574v.4065h-1.574v1.3078h1.942v.4217h-2.506v-3.823h2.506zM55.3035 23.9539l24.335 6.5414v22.922l-24.335-6.5383V23.9539zM53.7427 22v25.9925l27.4533 7.3818V29.3848L53.7427 22z" fill="#AFB1B8"/><path d="M68.4565 67.4402L41 60.0522V34.0625l27.4565 7.3849v25.9928z" fill="#AFB1B8"/><path d="M54.1978 23.6596l24.0177 6.4593-10.2141 9.6723-24.0208-6.4624 10.2172-9.6692zM53.7427 22L41 34.0631l27.4565 7.3847L81.196 29.3847 53.7427 22zM70.0015 65.978l11.1947-10.6006-11.1947-3.0127V65.978z" fill="#AFB1B8"/></svg>

<svg width="170" height="90" viewBox="0 0 170 90" fill="none" xmlns="http://www.w3.org/2000/svg">
<rect x="0.5" y="0.5" width="169" height="89" rx="3.5" stroke="#AFB1B8"/>
<path d="M85.7404 43.3533C85.3224 42.7432 85.1225 42.022 85.1699 41.2962V38.3135C85.1699 37.3992 85.359 36.7044 85.7372 36.2291C86.1154 35.7537 86.7649 35.517 87.6858 35.5191C88.5512 35.5191 89.1654 35.7213 89.5287 36.1259C89.9249 36.6421 90.1176 37.2733 90.0735 37.91V38.6109H88.5255V37.9009C88.531 37.6685 88.516 37.4361 88.4807 37.2061C88.4584 37.0488 88.3804 36.9033 88.2595 36.7934C88.1006 36.675 87.9003 36.6175 87.6987 36.6326C87.4866 36.6176 87.2762 36.6782 87.1089 36.8025C86.9741 36.9243 86.8842 37.0838 86.8525 37.2576C86.8081 37.5011 86.7878 37.7479 86.7916 37.995V41.6147C86.7672 41.964 86.8355 42.3134 86.9904 42.6312C87.0673 42.7387 87.1743 42.824 87.2993 42.8775C87.4243 42.9311 87.5625 42.9508 87.6987 42.9346C87.897 42.9501 88.0937 42.8912 88.2467 42.7708C88.3728 42.6523 88.454 42.4976 88.4775 42.3308C88.5136 42.0907 88.5297 41.8482 88.5255 41.6056V40.8714H90.0735V41.5419C90.117 42.2056 89.9289 42.8644 89.5383 43.4171C89.1825 43.86 88.5768 44.0815 87.6858 44.0815C86.7949 44.0815 86.1218 43.8449 85.7404 43.3533Z" fill="#AFB1B8"/>
<path d="M92.1856 43.3837C91.7946 42.9194 91.5991 42.2428 91.5991 41.3477V38.2104C91.5991 37.3244 91.7946 36.6538 92.1856 36.1987C92.5766 35.7436 93.2304 35.517 94.147 35.5191C95.0572 35.5191 95.7078 35.7456 96.0988 36.1987C96.4898 36.6538 96.6885 37.3244 96.6885 38.2104V41.3477C96.6885 42.2337 96.4898 42.9134 96.0924 43.3806C95.695 43.8479 95.0476 44.0815 94.147 44.0815C93.2464 44.0815 92.5798 43.8449 92.1856 43.3837ZM94.8681 42.6312C95.0081 42.3404 95.0719 42.0219 95.054 41.7027V37.8615C95.072 37.5485 95.0093 37.2361 94.8713 36.9512C94.7928 36.8414 94.6832 36.7547 94.5551 36.7011C94.4271 36.6474 94.2856 36.629 94.147 36.6478C94.0079 36.6294 93.8662 36.6481 93.7377 36.7017C93.6093 36.7553 93.4991 36.8417 93.4195 36.9512C93.2786 37.2353 93.2147 37.5481 93.2336 37.8615V41.7209C93.2141 42.0402 93.278 42.3591 93.4195 42.6494C93.5097 42.7473 93.6211 42.8257 93.746 42.8795C93.8709 42.9332 94.0066 42.961 94.1438 42.961C94.281 42.961 94.4167 42.9332 94.5416 42.8795C94.6665 42.8257 94.7779 42.7473 94.8681 42.6494V42.6312Z" fill="#AFB1B8"/>
<path d="M98.5505 35.6106H100.217L101.47 41.3992L102.752 35.6106H104.374L104.537 43.9658H103.339L103.211 38.159L101.973 43.9658H101.012L99.7299 38.1378L99.6114 43.9658H98.3999L98.5505 35.6106Z" fill="#AFB1B8"/>
<path d="M106.406 35.6106H109.002C110.498 35.6106 111.245 36.4014 111.245 37.9831C111.245 39.498 110.458 40.2544 108.883 40.2524H107.999V43.9658H106.396L106.406 35.6106ZM108.624 39.1814C108.782 39.2005 108.943 39.1867 109.095 39.1411C109.247 39.0956 109.387 39.0193 109.505 38.9175C109.689 38.6353 109.77 38.3039 109.736 37.974C109.744 37.7191 109.719 37.4642 109.659 37.2155C109.636 37.1324 109.596 37.0545 109.541 36.9863C109.486 36.918 109.417 36.8608 109.339 36.8181C109.116 36.7171 108.87 36.6711 108.624 36.6846H108.002V39.1814H108.624Z" fill="#AFB1B8"/>
<path d="M113.556 35.6106H115.277L117.043 43.9658H115.549L115.2 42.0393H113.665L113.306 43.9658H111.79L113.556 35.6106ZM115.027 41.0715L114.428 37.5644L113.828 41.0715H115.027Z" fill="#AFB1B8"/>
<path d="M118.469 35.6106H119.591L121.738 40.3768V35.6106H123.068V43.9658H122.001L119.841 38.9903V43.9658H118.466L118.469 35.6106Z" fill="#AFB1B8"/>
<path d="M126.184 40.7801L124.398 35.6223H125.902L126.991 38.9354L128.014 35.6223H129.485L127.722 40.7801V43.9658H126.184V40.7801Z" fill="#AFB1B8"/>
<path d="M88.2146 47.6189V48.0558H86.907V51.4509H86.3589V48.0558H85.0449V47.6189H88.2146Z" fill="#AFB1B8"/>
<path d="M92.3141 51.4512H91.891C91.8481 51.4537 91.8057 51.4407 91.7724 51.4148C91.7404 51.3925 91.7159 51.362 91.7019 51.3268L91.3238 50.4166H89.5097L89.1316 51.3268C89.1208 51.3649 89.1011 51.4001 89.0739 51.43C89.0403 51.4554 88.9982 51.4683 88.9553 51.4664H88.5322L90.1347 47.6345H90.6924L92.3141 51.4512ZM89.6604 50.0283H91.1731L90.5321 48.4688C90.4848 48.3509 90.4452 48.2303 90.4135 48.1078C90.3911 48.1806 90.3719 48.2504 90.3526 48.3111L90.295 48.4719L89.6604 50.0283Z" fill="#AFB1B8"/>
<path d="M95.0766 51.0748C95.177 51.0798 95.2775 51.0798 95.3779 51.0748C95.4645 51.0664 95.5503 51.0512 95.6343 51.0293C95.7128 51.0111 95.7899 50.9878 95.865 50.9595C95.9356 50.9322 96.0061 50.8988 96.0798 50.8655V50.0037H95.4388C95.4229 50.0046 95.4071 50.0023 95.3922 49.9971C95.3773 49.9919 95.3637 49.9838 95.3523 49.9734C95.3417 49.9648 95.3334 49.954 95.3279 49.9419C95.3223 49.9299 95.3197 49.9167 95.3202 49.9036V49.6093H96.5637V51.0779C96.4622 51.1466 96.355 51.2075 96.2432 51.2599C96.129 51.3133 96.0099 51.357 95.8875 51.3904C95.7564 51.4269 95.6224 51.4533 95.4869 51.4693C95.3315 51.4856 95.1753 51.4937 95.0189 51.4936C94.7425 51.4958 94.4683 51.4473 94.2113 51.351C93.9714 51.2596 93.7534 51.1234 93.5703 50.9504C93.3919 50.7757 93.2514 50.5695 93.1569 50.3436C93.0559 50.0896 93.0059 49.8199 93.0095 49.5486C93.0061 49.2755 93.055 49.0041 93.1537 48.7475C93.2459 48.5204 93.3866 48.3138 93.5671 48.1406C93.75 47.9682 93.9681 47.833 94.2081 47.7431C94.4825 47.6454 94.7738 47.597 95.067 47.6005C95.2162 47.6003 95.3652 47.6115 95.5125 47.6339C95.6428 47.654 95.7706 47.6865 95.8939 47.731C96.006 47.7709 96.1134 47.8217 96.2144 47.8827C96.3126 47.9426 96.4058 48.0095 96.4932 48.083L96.3394 48.3197C96.3273 48.3413 96.3094 48.3594 96.2874 48.3722C96.2654 48.3851 96.2402 48.392 96.2144 48.3925C96.1789 48.3914 96.1445 48.3809 96.115 48.3621C96.067 48.3379 96.0157 48.3075 95.958 48.2711C95.8898 48.2307 95.818 48.1961 95.7433 48.1679C95.6477 48.1317 95.5491 48.1032 95.4484 48.083C95.3142 48.0596 95.1779 48.0484 95.0414 48.0496C94.8299 48.0474 94.62 48.0834 94.4228 48.1558C94.2445 48.2235 94.0838 48.3271 93.9517 48.4592C93.8189 48.597 93.7174 48.7592 93.6536 48.9356C93.5105 49.3507 93.5105 49.7981 93.6536 50.2131C93.7238 50.3933 93.833 50.5576 93.9741 50.6955C94.1056 50.827 94.2651 50.9304 94.4421 50.999C94.6458 51.0652 94.8619 51.091 95.0766 51.0748Z" fill="#AFB1B8"/>
<path d="M100.185 51.014H101.935V51.4509H99.6499V47.6189H100.198L100.185 51.014Z" fill="#AFB1B8"/>
<path d="M103.756 51.4509H103.208V47.6189H103.756V51.4509Z" fill="#AFB1B8"/>
<path d="M105.794 47.6371C105.826 47.6547 105.855 47.6785 105.877 47.7069L108.22 50.5955C108.217 50.5501 108.217 50.5045 108.22 50.459C108.22 50.4165 108.22 50.374 108.22 50.3346V47.6038H108.698V51.4512H108.422C108.381 51.4543 108.34 51.447 108.303 51.43C108.27 51.4109 108.241 51.3862 108.217 51.3571L105.877 48.4716C105.877 48.5171 105.877 48.5595 105.877 48.602C105.877 48.6445 105.877 48.684 105.877 48.7204V51.4512H105.419V47.6189H105.704C105.735 47.619 105.766 47.6252 105.794 47.6371Z" fill="#AFB1B8"/>
<path d="M112.732 47.6189V48.0406H110.79V49.3059H112.364V49.7124H110.79V51.0202H112.732V51.4419H110.226V47.6189H112.732Z" fill="#AFB1B8"/>
<path d="M55.3035 23.9539L79.6385 30.4953V53.4173L55.3035 46.879V23.9539ZM53.7427 22V47.9925L81.196 55.3743V29.3848L53.7427 22Z" fill="#AFB1B8"/>
<path d="M68.4565 67.4402L41 60.0522V34.0625L68.4565 41.4474V67.4402Z" fill="#AFB1B8"/>
<path d="M54.1978 23.6596L78.2155 30.1189L68.0014 39.7912L43.9806 33.3288L54.1978 23.6596ZM53.7427 22L41 34.0631L68.4565 41.4478L81.196 29.3847L53.7427 22Z" fill="#AFB1B8"/>
<path d="M70.0015 65.978L81.1962 55.3774L70.0015 52.3647V65.978Z" fill="#AFB1B8"/>
</svg>
